packages/foundations/assets/icons/functional/images/maps/parking_24_filled.svg

<svg xmlns="http://www.w3.org/2000/svg" width="20" height="20" fill="none"><path fill="#1A1C1F" fill-rule="evenodd" d="M4.5 2.032c-1.004.019-1.019.02-1.222.107a2.15 2.15 0 0 0-1.18 1.265l-.081.246v12.7l.081.246a2.13 2.13 0 0 0 1.306 1.306l.246.081h12.7l.246-.081a2.13 2.13 0 0 0 1.306-1.306l.081-.246V3.65l-.081-.246a2.15 2.15 0 0 0-1.252-1.29c-.141-.051-.332-.064-1.233-.083-1.235-.028-9.412-.026-10.917.001m6.2 4.002c.827.05 1.269.191 1.726.548.39.305.665.735.762 1.192.075.355.047 1.335-.046 1.593-.331.918-.936 1.389-2.042 1.589-.348.062-1.299.073-1.708.019l-.225-.03-.015.103c-.009.056-.022.592-.029 1.191l-.014 1.089-.086.147c-.407.695-1.311.688-1.666-.014l-.09-.179V6.546l.096-.152c.156-.245.302-.336.582-.362.372-.035 2.182-.033 2.755.002M9.134 8.52c0 .603.009 1.128.019 1.167.018.065.048.071.458.088.614.026 1.104-.014 1.28-.103.336-.172.502-.481.533-.989.04-.669-.205-1.091-.687-1.182a10 10 0 0 0-.89-.056l-.714-.022z"/></svg>

<svg width="20" height="20" viewBox="0 0 20 20" fill="none" xmlns="http://www.w3.org/2000/svg"><path d="M4.500 2.032 C 3.496 2.051,3.481 2.052,3.278 2.139 C 2.727 2.374,2.279 2.855,2.098 3.404 L 2.017 3.650 2.017 10.000 L 2.017 16.350 2.098 16.596 C 2.293 17.188,2.812 17.707,3.404 17.902 L 3.650 17.983 10.000 17.983 L 16.350 17.983 16.596 17.902 C 17.188 17.707,17.707 17.188,17.902 16.596 L 17.983 16.350 17.983 10.000 L 17.983 3.650 17.902 3.404 C 17.714 2.834,17.212 2.315,16.650 2.114 C 16.509 2.063,16.318 2.050,15.417 2.031 C 14.182 2.003,6.005 2.005,4.500 2.032 M10.700 6.034 C 11.527 6.084,11.969 6.225,12.426 6.582 C 12.816 6.887,13.091 7.317,13.188 7.774 C 13.263 8.129,13.235 9.109,13.142 9.367 C 12.811 10.285,12.206 10.756,11.100 10.956 C 10.752 11.018,9.801 11.029,9.392 10.975 L 9.167 10.945 9.152 11.048 C 9.143 11.104,9.130 11.640,9.123 12.239 L 9.109 13.328 9.023 13.475 C 8.616 14.170,7.712 14.163,7.357 13.461 L 7.267 13.282 7.267 9.914 L 7.267 6.546 7.363 6.394 C 7.519 6.149,7.665 6.058,7.945 6.032 C 8.317 5.997,10.127 5.999,10.700 6.034 M9.134 8.520 C 9.134 9.123,9.143 9.648,9.153 9.687 C 9.171 9.752,9.201 9.758,9.611 9.775 C 10.225 9.801,10.715 9.761,10.891 9.672 C 11.227 9.500,11.393 9.191,11.424 8.683 C 11.464 8.014,11.219 7.592,10.737 7.501 C 10.640 7.482,10.239 7.457,9.847 7.445 L 9.133 7.423 9.134 8.520 " fill="#1A1C1F" stroke="none" fill-rule="evenodd"></path></svg>
